Numix-Circle/48x48/apps/chrome-pnoffddplpippgcfjdhbmhkofpnaalpg-Default.svg

<?xml version="1.0" encoding="UTF-8" standalone="no"?>
<svg
   xmlns:dc="http://purl.org/dc/elements/1.1/"
   xmlns:cc="http://creativecommons.org/ns#"
   xmlns:rdf="http://www.w3.org/1999/02/22-rdf-syntax-ns#"
   xmlns:svg="http://www.w3.org/2000/svg"
   xmlns="http://www.w3.org/2000/svg"
   xmlns:xlink="http://www.w3.org/1999/xlink"
   xmlns:sodipodi="http://sodipodi.sourceforge.net/DTD/sodipodi-0.dtd"
   xmlns:inkscape="http://www.inkscape.org/namespaces/inkscape"
   viewBox="0 0 48 48"
   id="svg2"
   version="1.1"
   inkscape:version="0.48.5 r10040"
   width="100%"
   height="100%"
   sodipodi:docname="chrome-pnoffddplpippgcfjdhbmhkofpnaalpg-Default.svg">
  <metadata
     id="metadata73">
    <rdf:RDF>
      <cc:Work
         rdf:about="">
        <dc:format>image/svg+xml</dc:format>
        <dc:type
           rdf:resource="http://purl.org/dc/dcmitype/StillImage" />
      </cc:Work>
    </rdf:RDF>
  </metadata>
  <sodipodi:namedview
     pagecolor="#ffffff"
     bordercolor="#666666"
     borderopacity="1"
     objecttolerance="10"
     gridtolerance="10"
     guidetolerance="10"
     inkscape:pageopacity="0"
     inkscape:pageshadow="2"
     inkscape:window-width="1280"
     inkscape:window-height="998"
     id="namedview71"
     showgrid="true"
     inkscape:zoom="8"
     inkscape:cx="0.70686565"
     inkscape:cy="24.216304"
     inkscape:window-x="0"
     inkscape:window-y="0"
     inkscape:window-maximized="1"
     inkscape:current-layer="svg2">
    <inkscape:grid
       type="xygrid"
       id="grid3846" />
  </sodipodi:namedview>
  <defs
     id="defs4">
    <linearGradient
       id="linearGradient3836">
      <stop
         style="stop-color:#3a3a3a;stop-opacity:1;"
         offset="0"
         id="stop3838" />
      <stop
         style="stop-color:#303030;stop-opacity:1;"
         offset="1"
         id="stop3840" />
    </linearGradient>
    <linearGradient
       id="linearGradient3764"
       x1="1"
       x2="47"
       gradientUnits="userSpaceOnUse"
       gradientTransform="matrix(0,-1,1,0,-1.5e-6,47.999998)">
      <stop
         stop-color="#595959"
         stop-opacity="1"
         id="stop7" />
      <stop
         offset="1"
         stop-color="#636363"
         stop-opacity="1"
         id="stop9" />
    </linearGradient>
    <clipPath
       id="clipPath-868355930">
      <g
         transform="translate(0,-1004.3622)"
         id="g12">
        <path
           d="m -24 13 c 0 1.105 -0.672 2 -1.5 2 -0.828 0 -1.5 -0.895 -1.5 -2 0 -1.105 0.672 -2 1.5 -2 0.828 0 1.5 0.895 1.5 2 z"
           transform="matrix(15.333333,0,0,11.5,414.99999,878.8622)"
           fill="#1890d0"
           id="path14" />
      </g>
    </clipPath>
    <clipPath
       id="clipPath-880036337">
      <g
         transform="translate(0,-1004.3622)"
         id="g17">
        <path
           d="m -24 13 c 0 1.105 -0.672 2 -1.5 2 -0.828 0 -1.5 -0.895 -1.5 -2 0 -1.105 0.672 -2 1.5 -2 0.828 0 1.5 0.895 1.5 2 z"
           transform="matrix(15.333333,0,0,11.5,414.99999,878.8622)"
           fill="#1890d0"
           id="path19" />
      </g>
    </clipPath>
    <clipPath
       clipPathUnits="userSpaceOnUse"
       id="clipPath3831">
      <rect
         style="opacity:0.23931627;fill:#424242;fill-opacity:1;stroke:none"
         id="rect3833"
         width="30.050848"
         height="26.171549"
         x="11.186441"
         y="-22.220339" />
    </clipPath>
    <linearGradient
       inkscape:collect="always"
       xlink:href="#linearGradient3836"
       id="linearGradient3842"
       x1="1"
       y1="24"
       x2="47"
       y2="24"
       gradientUnits="userSpaceOnUse"
       gradientTransform="matrix(0,-1,1,0,0,48)" />
    <linearGradient
       inkscape:collect="always"
       xlink:href="#linearGradient3836"
       id="linearGradient3844"
       gradientUnits="userSpaceOnUse"
       gradientTransform="matrix(0,1,-1,0,48,0)"
       x1="1"
       y1="24"
       x2="47"
       y2="24" />
  </defs>
  <g
     id="g21">
    <path
       d="m 36.31 5 c 5.859 4.062 9.688 10.831 9.688 18.5 c 0 12.426 -10.07 22.5 -22.5 22.5 c -7.669 0 -14.438 -3.828 -18.5 -9.688 c 1.037 1.822 2.306 3.499 3.781 4.969 c 4.085 3.712 9.514 5.969 15.469 5.969 c 12.703 0 23 -10.298 23 -23 c 0 -5.954 -2.256 -11.384 -5.969 -15.469 c -1.469 -1.475 -3.147 -2.744 -4.969 -3.781 z m 4.969 3.781 c 3.854 4.113 6.219 9.637 6.219 15.719 c 0 12.703 -10.297 23 -23 23 c -6.081 0 -11.606 -2.364 -15.719 -6.219 c 4.16 4.144 9.883 6.719 16.219 6.719 c 12.703 0 23 -10.298 23 -23 c 0 -6.335 -2.575 -12.06 -6.719 -16.219 z"
       opacity="0.05"
       id="path23" />
    <path
       d="m 41.28 8.781 c 3.712 4.085 5.969 9.514 5.969 15.469 c 0 12.703 -10.297 23 -23 23 c -5.954 0 -11.384 -2.256 -15.469 -5.969 c 4.113 3.854 9.637 6.219 15.719 6.219 c 12.703 0 23 -10.298 23 -23 c 0 -6.081 -2.364 -11.606 -6.219 -15.719 z"
       opacity="0.1"
       id="path25" />
    <path
       d="m 31.25 2.375 c 8.615 3.154 14.75 11.417 14.75 21.13 c 0 12.426 -10.07 22.5 -22.5 22.5 c -9.708 0 -17.971 -6.135 -21.12 -14.75 a 23 23 0 0 0 44.875 -7 a 23 23 0 0 0 -16 -21.875 z"
       opacity="0.2"
       id="path27" />
  </g>
  <path
     inkscape:connector-curvature="0"
     style="fill:url(#linearGradient3844);fill-opacity:1"
     id="path31"
     d="M 47,24 C 47,36.703 36.703,47 24,47 11.297,47 1,36.703 1,24 1,11.297 11.297,1 24,1 36.703,1 47,11.297 47,24 z" />
  <g
     id="g33" />
  <path
     style="fill:#000000;fill-opacity:0.09803922;stroke:none"
     d="M 17.53125,12 12.84375,20 10,25 l 4.65625,8 2.875,5 9.3125,0 5.625,0 4.6875,-8 L 40,25 l -4.65625,-8 -2.875,-5 -9.34375,0 -0.03125,0 -5.5625,0 z M 23.0625,22 27,22 28.71875,25 26.9375,28 23,28 21.28125,25 23.0625,22 z"
     id="path3904"
     inkscape:connector-curvature="0" />
  <g
     id="g67">
    <path
       d="m 40.03 7.531 c 3.712 4.084 5.969 9.514 5.969 15.469 0 12.703 -10.297 23 -23 23 c -5.954 0 -11.384 -2.256 -15.469 -5.969 4.178 4.291 10.01 6.969 16.469 6.969 c 12.703 0 23 -10.298 23 -23 0 -6.462 -2.677 -12.291 -6.969 -16.469 z"
       opacity="0.1"
       id="path69" />
  </g>
  <path
     style="fill:#c5e1a5;fill-opacity:1;stroke:none"
     d="m 9,24 2.851562,-5 4.503907,8 L 26,27 l -3,5 -9.348863,0 z"
     id="path3848"
     inkscape:connector-curvature="0"
     sodipodi:nodetypes="ccccccc" />
  <path
     sodipodi:nodetypes="ccccccc"
     inkscape:connector-curvature="0"
     id="path3854"
     d="M 30.507467,28.898437 27.712325,24 23,32 l -9.347657,0 2.875,5 9.304688,0 z"
     style="fill:#33ac71;fill-opacity:1;stroke:none" />
  <path
     style="fill:#fff59d;fill-opacity:1;stroke:none"
     d="m 26,21 5.55464,0 4.596194,8 -4.695631,8 -5.625719,0 4.66661,-8.09375 z"
     id="path3856"
     inkscape:connector-curvature="0"
     sodipodi:nodetypes="ccccccc" />
  <path
     sodipodi:nodetypes="ccccccc"
     inkscape:connector-curvature="0"
     id="path3858"
     d="M 39,24 36.148438,29 31.550781,21 22,21 l 3,-5 9.348863,0 z"
     style="fill:#fdd835;fill-opacity:1;stroke:none" />
  <path
     style="fill:#eda29b;fill-opacity:1;stroke:none"
     d="M 17.433939,19.113282 20.268143,24 25,16 l 9.347657,0 -2.875,-5 -9.367188,0 z"
     id="path3860"
     inkscape:connector-curvature="0"
     sodipodi:nodetypes="ccccccc" />
  <path
     inkscape:connector-curvature="0"
     id="path3862"
     d="m 22,27 -5.659601,0 -4.491233,-8 4.695631,-8 5.590563,0 -4.643173,8.109375 z"
     style="fill:#db4437;fill-opacity:1;stroke:none"
     sodipodi:nodetypes="ccccccc" />
  <path
     sodipodi:nodetypes="ccccccc"
     inkscape:connector-curvature="0"
     id="path3917"
     d="m 9,24 2.851562,-5 4.503907,8 L 26,27 l -3,5 -9.348863,0 z"
     style="fill:#c5e1a5;fill-opacity:1;stroke:none" />
  <path
     style="fill:#33ac71;fill-opacity:1;stroke:none"
     d="M 30.507467,28.898437 27.712325,24 23,32 l -9.347657,0 2.875,5 9.304688,0 z"
     id="path3919"
     inkscape:connector-curvature="0"
     sodipodi:nodetypes="ccccccc" />
  <path
     sodipodi:nodetypes="ccccccc"
     inkscape:connector-curvature="0"
     id="path3921"
     d="m 26,21 5.55464,0 4.596194,8 -4.695631,8 -5.625719,0 4.66661,-8.09375 z"
     style="fill:#fff59d;fill-opacity:1;stroke:none" />
  <path
     style="fill:#fdd835;fill-opacity:1;stroke:none"
     d="M 39,24 36.148438,29 31.550781,21 22,21 l 3,-5 9.348863,0 z"
     id="path3923"
     inkscape:connector-curvature="0"
     sodipodi:nodetypes="ccccccc" />
  <path
     sodipodi:nodetypes="ccccccc"
     inkscape:connector-curvature="0"
     id="path3925"
     d="M 17.433939,19.113282 20.268143,24 25,16 l 9.347657,0 -2.875,-5 -9.367188,0 z"
     style="fill:#eda29b;fill-opacity:1;stroke:none" />
  <path
     sodipodi:nodetypes="ccccccc"
     style="fill:#db4437;fill-opacity:1;stroke:none"
     d="m 22,27 -5.659601,0 -4.491233,-8 4.695631,-8 5.590563,0 -4.643173,8.109375 z"
     id="path3927"
     inkscape:connector-curvature="0" />
</svg>

<svg xmlns="http://www.w3.org/2000/svg" viewBox="0 0 48 48"><defs><linearGradient id="linearGradient3844" gradientUnits="userSpaceOnUse" gradientTransform="matrix(0,1,-1,0,48,0)" x1="1" x2="47"><stop stop-color="#3a3a3a" stop-opacity="1"/><stop offset="1" stop-color="#303030" stop-opacity="1"/></linearGradient></defs><g><path d="m 36.31 5 c 5.859 4.062 9.688 10.831 9.688 18.5 c 0 12.426 -10.07 22.5 -22.5 22.5 c -7.669 0 -14.438 -3.828 -18.5 -9.688 c 1.037 1.822 2.306 3.499 3.781 4.969 c 4.085 3.712 9.514 5.969 15.469 5.969 c 12.703 0 23 -10.298 23 -23 c 0 -5.954 -2.256 -11.384 -5.969 -15.469 c -1.469 -1.475 -3.147 -2.744 -4.969 -3.781 z m 4.969 3.781 c 3.854 4.113 6.219 9.637 6.219 15.719 c 0 12.703 -10.297 23 -23 23 c -6.081 0 -11.606 -2.364 -15.719 -6.219 c 4.16 4.144 9.883 6.719 16.219 6.719 c 12.703 0 23 -10.298 23 -23 c 0 -6.335 -2.575 -12.06 -6.719 -16.219 z" opacity="0.05"/><path d="m 41.28 8.781 c 3.712 4.085 5.969 9.514 5.969 15.469 c 0 12.703 -10.297 23 -23 23 c -5.954 0 -11.384 -2.256 -15.469 -5.969 c 4.113 3.854 9.637 6.219 15.719 6.219 c 12.703 0 23 -10.298 23 -23 c 0 -6.081 -2.364 -11.606 -6.219 -15.719 z" opacity="0.1"/><path d="m 31.25 2.375 c 8.615 3.154 14.75 11.417 14.75 21.13 c 0 12.426 -10.07 22.5 -22.5 22.5 c -9.708 0 -17.971 -6.135 -21.12 -14.75 a 23 23 0 0 0 44.875 -7 a 23 23 0 0 0 -16 -21.875 z" opacity="0.2"/></g><path d="M 47,24 C 47,36.703 36.703,47 24,47 11.297,47 1,36.703 1,24 1,11.297 11.297,1 24,1 36.703,1 47,11.297 47,24 z" fill="url(#linearGradient3844)" fill-opacity="1"/><path d="m 17.531 12 -7.531 13 7.531 13 14.938 0 7.531 -13 -7.531 -13 m -9.406 10 3.938 0 1.719 3 -1.781 3 -3.938 0 -1.719 -3" fill="#000" stroke="none" fill-opacity="0.098"/><g><path d="m 40.03 7.531 c 3.712 4.084 5.969 9.514 5.969 15.469 0 12.703 -10.297 23 -23 23 c -5.954 0 -11.384 -2.256 -15.469 -5.969 4.178 4.291 10.01 6.969 16.469 6.969 c 12.703 0 23 -10.298 23 -23 0 -6.462 -2.677 -12.291 -6.969 -16.469 z" opacity="0.1"/></g><g><path d="m 9 24 2.852 -5 4.504 8 l 9.645 0 l -3 5 -9.349 0 z" fill="#c5e1a5" stroke="none" fill-opacity="1"/><path d="m 30.507 28.898 -2.795 -4.898 -4.712 8 l -9.348 0 2.875 5 9.305 0 z" fill="#33ac71" stroke="none" fill-opacity="1"/><path d="m 26 21 5.555 0 4.596 8 -4.696 8 -5.626 0 4.667 -8.094 z" fill="#fff59d" stroke="none" fill-opacity="1"/><path d="m 39 24 -2.852 5 -4.598 -8 -9.551 0 l 3 -5 9.349 0 z" fill="#fdd835" stroke="none" fill-opacity="1"/><path d="m 17.434 19.11 2.834 4.887 4.732 -8 l 9.348 0 -2.875 -5 -9.367 0 z" fill="#eda29b" stroke="none" fill-opacity="1"/><path d="m 22 27 -5.66 0 -4.491 -8 4.696 -8 5.591 0 -4.643 8.109 z" fill="#db4437" stroke="none" fill-opacity="1"/></g></svg>
